packages/elvis-assets-icons/icons/svg/src/electricity_tower.svg

<svg width="24" height="24" viewBox="0 0 24 24" fill="none" xmlns="http://www.w3.org/2000/svg">
<path d="M19.969 24C19.668 24 19.398 23.822 19.279 23.545L17.956 20.456L11.718 17.337L5.48201 20.455L4.15801 23.544C4.04001 23.822 3.76901 24 3.46901 24C3.36701 24 3.26801 23.98 3.17401 23.94C2.79301 23.777 2.61701 23.335 2.77901 22.955L6.83201 13.5H2.87401C2.57401 13.5 2.29201 13.383 2.08001 13.171C1.64101 12.732 1.64101 12.019 2.07901 11.58L6.15901 7.5H2.87401C2.57301 7.5 2.29101 7.383 2.07901 7.17C1.86601 6.957 1.74901 6.674 1.75001 6.374C1.75001 6.074 1.86701 5.792 2.07901 5.58L7.43901 0.22C7.44501 0.214 7.45201 0.207 7.45901 0.201C7.47101 0.19 7.48201 0.181 7.49401 0.172C7.51001 0.158 7.52801 0.144 7.54801 0.13C7.55501 0.125 7.56201 0.12 7.56801 0.116C7.58401 0.106 7.61201 0.091 7.62901 0.083C7.63901 0.077 7.66001 0.066 7.68201 0.057C7.69001 0.053 7.70001 0.05 7.70901 0.047C7.71801 0.043 7.73701 0.037 7.75601 0.032C7.79001 0.022 7.81301 0.016 7.83701 0.012C7.86401 0.007 7.89001 0.005 7.91601 0.003C7.92301 0.002 7.94601 0 7.96901 0H15.456C15.473 0 15.514 0.002 15.531 0.005H15.533C15.545 0.005 15.575 0.008 15.606 0.014C15.618 0.016 15.653 0.025 15.665 0.028C15.691 0.035 15.711 0.041 15.731 0.048C15.741 0.051 15.751 0.055 15.759 0.059C15.777 0.066 15.797 0.077 15.817 0.088C15.827 0.092 15.845 0.101 15.863 0.113C15.873 0.119 15.883 0.126 15.893 0.133C15.911 0.146 15.928 0.159 15.945 0.173C15.957 0.182 15.97 0.193 15.982 0.204C15.988 0.209 21.36 5.58 21.36 5.58C21.572 5.793 21.689 6.076 21.689 6.376C21.689 6.677 21.572 6.959 21.359 7.171C21.15 7.38 20.86 7.5 20.564 7.5H17.28L21.36 11.58C21.572 11.793 21.689 12.076 21.689 12.376C21.689 12.677 21.572 12.959 21.359 13.171C21.15 13.38 20.861 13.5 20.564 13.5H16.606L20.658 22.955C20.821 23.335 20.644 23.777 20.264 23.94C20.17 23.98 20.071 24 19.969 24ZM17.041 18.323L15.754 15.321L13.396 16.5L17.041 18.323ZM6.39701 18.322L10.041 16.5L7.68301 15.321L6.39701 18.322ZM11.719 15.661L15.163 13.939L14.975 13.5H8.46401L8.27601 13.939L11.719 15.661ZM3.78001 12H7.22001V8.561L3.78001 12ZM19.658 12L16.219 8.561V12H19.658ZM14.116 12L11.719 8.165L9.32301 12H14.116ZM8.71901 10.135L10.834 6.75L8.71901 3.365V10.135ZM14.719 10.135V3.365L12.604 6.75L14.719 10.135ZM3.78001 6H7.22001V2.561L3.78001 6ZM19.658 6L16.219 2.561V6H19.658ZM11.719 5.335L14.116 1.5H9.32301L11.719 5.335Z" fill="black"/>
</svg>

<svg width="24" height="24" fill="none" xmlns="http://www.w3.org/2000/svg"><path d="M19.969 24a.75.75 0 01-.69-.455l-1.323-3.089-6.238-3.119-6.236 3.118-1.324 3.089a.747.747 0 01-.984.396.752.752 0 01-.395-.985L6.832 13.5H2.874a1.127 1.127 0 01-.795-1.92l4.08-4.08H2.874c-.301 0-.583-.117-.795-.33a1.114 1.114 0 01-.329-.796c0-.3.117-.582.329-.794L7.439.22l.02-.019a.447.447 0 01.035-.029.635.635 0 01.054-.042l.02-.014a.718.718 0 01.061-.033.438.438 0 01.053-.026l.027-.01a.67.67 0 01.128-.035c.027-.005.053-.007.079-.009A.47.47 0 017.969 0h7.487a.63.63 0 01.075.005h.002c.012 0 .042.003.073.009l.059.014a.908.908 0 01.094.031.522.522 0 01.058.029c.01.004.028.013.046.025l.03.02a1.023 1.023 0 01.089.071L21.36 5.58a1.122 1.122 0 01-.001 1.591 1.132 1.132 0 01-.795.329H17.28l4.08 4.08a1.122 1.122 0 01-.001 1.591 1.13 1.13 0 01-.795.329h-3.958l4.052 9.455A.751.751 0 0119.969 24zm-2.928-5.677l-1.287-3.002-2.358 1.179 3.645 1.823zm-10.644-.001l3.644-1.822-2.358-1.179-1.286 3.001zm5.322-2.661l3.444-1.722-.188-.439H8.464l-.188.439 3.443 1.722zM3.78 12h3.44V8.561L3.78 12zm15.878 0l-3.439-3.439V12h3.439zm-5.542 0l-2.397-3.835L9.323 12h4.793zm-5.397-1.865l2.115-3.385-2.115-3.385v6.77zm6 0v-6.77L12.604 6.75l2.115 3.385zM3.78 6h3.44V2.561L3.78 6zm15.878 0l-3.439-3.439V6h3.439zm-7.939-.665L14.116 1.5H9.323l2.396 3.835z" fill="#000"/></svg>
